X: 245
T: No_99_Stomp_Dance_Song_(a).krn
N: Derived from No_99_Stomp_Dance_Song_(a).krn
%%abc-version 2.0
%%abcx-abcm2ps-target-version 5.9.1 (29 Sep 2008)
%%abc-creator hum2abc beta
%%abcx-conversion-date 2019/03/15 08:38:45
%%humdrum-veritas 2361649969
%%humdrum-veritas-data 1816420169
%%linebreak <none>
%%barnumbers 0
L: 1/8
M: 3/4
K: Ab clef=bass
[K:clef=bass][M:3/4]z4(F,E,) | 
A,3z F,E, ||  
[M:2/4]A,2F,E, ||  
[M:3/4]A,2z2F,E, ||  
[M:2/4]A,2(C3/A,/) | 
A,3z | 
(C3/A,/)A,2 ||  
[M:3/4](C3/A,/)A,2z2 | 
(C3/A,/)A,2(3A,A,A, ||  
[M:2/4]A,4 ||  
[M:3/4]A,A,A,2(3:2:4A,A,/C/A, ||  
[M:2/4]A,2z2 | 
A,2A,A, | 
A,2A,A,- | 
A,2z2 ||  
[M:3/4]A,2A,A, A,C ||  
[M:2/4](C/A,3/)A,2 ||  
[M:3/4]A,C (CA,) A,C ||  
[M:2/4](C/A,3/) A, z | 
A,2z C ||  
[M:3/4]A,C CA, (3CCC | 
A,4z2 | 
(3CCCA,2(3CC_C | 
C4z2 | 
(3CCCC2(3CCA, | 
C4z2 | 
CA,C2(3CCC | 
C4z2



